calendar-start.svg

<svg  viewBox="0 0 24 24" fill="currentColor"><path  d="M2 14H4V17H9V14L13 18L9 22V19H4V22H2V14M19 19V8H5V12H3L3 5C3 3.89 3.89 3 5 3H6V.998H8V3H16V.998H18V3H19C20.1 3 21 3.89 21 5V19C21 20.1 20.1 21 19 21L12.83 21L14.83 19L19 19Z"/></svg>

<svg fill="currentColor" viewBox="0 0 24 24"><path d="M2 14h2v3h5v-3l4 4-4 4v-3H4v3H2zm17 5V8H5v4H3V5c0-1.11.89-2 2-2h1V.998h2V3h8V.998h2V3h1a2 2 0 0 1 2 2v14c0 1.1-.9 2-2 2h-6.17l2-2z"/></svg>
